remix/Media/notification-4-fill.svg

<svg viewBox="0 0 24 24" fill="currentColor" xmlns="http://www.w3.org/2000/svg"><path d="M20 18.6667L20.4 19.2C20.5657 19.4209 20.5209 19.7343 20.3 19.9C20.2135 19.9649 20.1082 20 20 20H4C3.72386 20 3.5 19.7761 3.5 19.5C3.5 19.3918 3.53509 19.2865 3.6 19.2L4 18.6667V10C4 5.58172 7.58172 2 12 2C16.4183 2 20 5.58172 20 10V18.6667ZM9.5 21H14.5C14.5 22.3807 13.3807 23.5 12 23.5C10.6193 23.5 9.5 22.3807 9.5 21Z"/></svg>

<svg viewBox="0 0 24 24" xmlns="http://www.w3.org/2000/svg"><path fill="none" d="M0 0h24v24H0Z"/><path d="M20 18.667l.4.53h0c.16.22.12.53-.1.7 -.09.06-.2.1-.3.1H4v0c-.28 0-.5-.23-.5-.5 0-.11.03-.22.1-.3l.4-.54V9.98l0 0c0-4.42 3.58-8 8-8 4.41 0 8 3.58 8 8v8.667Zm-10.5 2.33h5v0c0 1.38-1.12 2.5-2.5 2.5 -1.39 0-2.5-1.12-2.5-2.5Z"/></svg>
